lib/logo_tmp/nrk-logo-nrk-mp3-on-light.svg

<svg width="79" height="16" viewBox="0 0 79 16" fill="none" xmlns="http://www.w3.org/2000/svg">
<path d="M0 15V1.00123H4.59339V15H0ZM10.8428 3.2292L13.4844 15H8.45737L5.30307 1.00123H8.12254C8.76907 0.99284 9.39641 1.22075 9.88691 1.64208C10.3782 2.04574 10.7158 2.60611 10.8428 3.2292ZM14.1744 15V1.00123H18.7678V15H14.1744ZM22.2372 6.32474C21.7422 6.32957 21.2552 6.20006 20.828 5.95008C20.4064 5.70643 20.0563 5.35624 19.8127 4.93466C19.5624 4.50735 19.4329 4.02018 19.4378 3.525C19.4321 3.03283 19.5618 2.54857 19.8127 2.12512C20.0589 1.70811 20.4086 1.36174 20.828 1.11957C21.2553 0.869879 21.7423 0.740393 22.2372 0.744907C22.7292 0.739608 23.2133 0.86921 23.6369 1.11957C24.0521 1.36386 24.3981 1.70995 24.6424 2.12512C24.893 2.54869 25.0226 3.03287 25.0172 3.525C25.0218 4.02014 24.8923 4.50722 24.6424 4.93466C24.4007 5.3544 24.0542 5.70429 23.6369 5.95008C23.2133 6.20093 22.7289 6.33057 22.2366 6.32474H22.2372ZM25.7269 15V1.00123H30.3207V15H25.7269ZM36.136 8.65123C36.1489 8.66481 36.2475 8.82582 36.4317 9.13428C36.6159 9.44273 36.8558 9.83709 37.1513 10.3173C37.447 10.7973 37.759 11.3066 38.0874 11.8453C38.4157 12.384 38.7247 12.8934 39.0143 13.3734C39.3028 13.8534 39.6313 14.3955 40 15H34.9531C34.6375 14.4873 34.3515 14.024 34.0952 13.61C33.8389 13.1959 33.5665 12.749 33.2778 12.2692C32.9884 11.7899 32.7024 11.3233 32.4196 10.8693C32.1368 10.4154 31.8938 10.0178 31.6905 9.67653C31.4863 9.33499 31.3449 9.10494 31.2663 8.98642C31.0713 8.69231 30.9559 8.35264 30.9315 8.00059C30.951 7.66272 31.0597 7.3361 31.2466 7.05392C31.3254 6.92248 31.47 6.68912 31.6803 6.35394C31.8906 6.01876 32.137 5.62119 32.4196 5.16114C32.7021 4.70109 32.9882 4.23116 33.2778 3.7514C33.5674 3.27163 33.8398 2.8214 34.0952 2.40078C34.3519 1.9806 34.6379 1.51398 34.9531 1.00091H40L36.0962 7.36937C35.9754 7.55845 35.9073 7.77636 35.8991 8.00059C35.9121 8.236 35.9942 8.46233 36.1353 8.65123H36.136Z" fill="black"/>
<path d="M64.4896 1H60.1639C60.1639 1 62.6208 5.0269 62.6485 5.07872C62.7415 5.19544 62.7934 5.33949 62.7963 5.48863C62.7992 5.63777 62.7528 5.7837 62.6644 5.9039L60.1639 9.99582H64.4883C64.4883 9.99582 66.5734 6.59012 66.8586 6.11745C66.9942 5.93617 67.0665 5.71547 67.0644 5.4892C67.0623 5.26292 66.9859 5.04358 66.847 4.86483C66.5423 4.34331 66.5406 4.34365 64.4896 1Z" fill="black"/>
<path d="M78.032 3.31811C77.8866 3.07089 76.5997 1 76.5997 1H67.346L69.3676 4.38688H74.242L72.23 7.68003L74.4736 11.4429L72.3106 14.9941H76.2616C76.8968 13.956 77.8479 12.3509 78.0462 12.0235C78.1823 11.8416 78.2548 11.6202 78.2528 11.3932C78.2507 11.1662 78.1741 10.9462 78.0346 10.7669C77.8364 10.4299 76.7788 8.75343 76.1466 7.72195C76.1466 7.72195 77.8479 4.90643 78.0462 4.57734C78.1827 4.39504 78.2552 4.17292 78.2526 3.94532C78.2501 3.71772 78.1725 3.4973 78.032 3.31811Z" fill="black"/>
<path d="M69.129 8.14006C68.52 9.13358 67.5014 10.7988 67.3114 11.1233C67.1772 11.296 67.1034 11.5079 67.1015 11.7265C67.0995 11.9451 67.1694 12.1583 67.3005 12.3333C67.4915 12.6502 68.518 14.3283 69.13 15.3281C69.7418 14.3283 70.7686 12.6502 70.9593 12.3333C71.0904 12.1583 71.1603 11.9451 71.1584 11.7265C71.1564 11.5078 71.0826 11.2959 70.9484 11.1233C70.7567 10.7988 69.7378 9.13358 69.129 8.14006Z" fill="black"/>
<path d="M56.8313 1C56.3817 1.00302 55.9427 1.13662 55.5678 1.38453C55.2499 1.57993 52.6566 3.77856 52.4589 3.9459C52.2607 3.77856 49.668 1.57993 49.35 1.38453C48.9752 1.13662 48.5362 1.00302 48.0866 1H45.3333V13.3296L49.1604 10.4579V5.50682L52.4589 7.98635L55.7575 5.50682V14.9922H59.607V1H56.8313Z" fill="black"/>
</svg>

<svg xmlns="http://www.w3.org/2000/svg" viewBox="0 0 79 16"><path fill="#000" d="M0 15V1.001h4.593V15H0ZM10.843 3.23 13.484 15H8.457L5.303 1.001h2.82a2.655 2.655 0 0 1 1.764.641c.491.404.829.964.956 1.587ZM14.174 15V1.001h4.594V15h-4.594Zm8.063-8.675a2.737 2.737 0 0 1-1.409-.375 2.778 2.778 0 0 1-1.015-1.015 2.735 2.735 0 0 1-.375-1.41 2.685 2.685 0 0 1 .375-1.4 2.812 2.812 0 0 1 3.824-1.005c.415.244.761.59 1.005 1.005.251.424.38.908.375 1.4.005.495-.125.982-.375 1.41a2.8 2.8 0 0 1-1.005 1.015c-.424.25-.908.38-1.4.375ZM25.727 15V1.001h4.594V15h-4.594Zm10.409-6.349c.013.014.111.175.296.483.184.309.424.703.72 1.183a384.573 384.573 0 0 1 1.862 3.056c.289.48.617 1.023.986 1.627h-5.047l-.858-1.39c-.256-.414-.529-.861-.817-1.34a118.3 118.3 0 0 0-.858-1.4 71.28 71.28 0 0 1-.73-1.193 21.1 21.1 0 0 0-.424-.69A2.04 2.04 0 0 1 30.932 8c.019-.338.128-.665.315-.947.078-.132.223-.365.433-.7a216.97 216.97 0 0 0 1.598-2.603l.817-1.35.858-1.4H40l-3.904 6.368c-.12.19-.189.407-.197.632.013.235.095.461.236.65h.001ZM64.49 1h-4.326s2.457 4.027 2.484 4.079a.679.679 0 0 1 .016.825l-2.5 4.092h4.324s2.085-3.406 2.37-3.879a1.033 1.033 0 0 0-.011-1.252c-.305-.522-.306-.521-2.357-3.865ZM78.032 3.318A393.325 393.325 0 0 0 76.6 1h-9.254l2.022 3.387h4.874L72.23 7.68l2.244 3.763-2.163 3.551h3.95c.636-1.038 1.587-2.643 1.785-2.97a1.037 1.037 0 0 0-.011-1.257c-.199-.337-1.256-2.014-1.888-3.045 0 0 1.7-2.816 1.9-3.145a1.035 1.035 0 0 0-.015-1.259Z"/><path fill="#000" d="M69.129 8.14c-.609.994-1.628 2.659-1.818 2.983a.997.997 0 0 0-.01 1.21c.19.317 1.217 1.995 1.829 2.995.612-1 1.639-2.678 1.83-2.995a.998.998 0 0 0-.012-1.21c-.191-.324-1.21-1.99-1.819-2.983ZM56.831 1c-.45.003-.888.137-1.263.385-.318.195-2.911 2.394-3.11 2.56-.197-.166-2.79-2.365-3.108-2.56A2.318 2.318 0 0 0 48.087 1h-2.754v12.33l3.827-2.872V5.507l3.299 2.48 3.298-2.48v9.485h3.85V1h-2.776Z"/></svg>
